airbyte/airbyte-config/init/src/main/resources/icons/pocket.svg

<svg version="1.1" id="Layer_1" xmlns="http://www.w3.org/2000/svg" xmlns:xlink="http://www.w3.org/1999/xlink" x="0px" y="0px"
	 width="100%" viewBox="0 0 512 512" enable-background="new 0 0 512 512" xml:space="preserve">
<path fill="#E84352" opacity="1.000000" stroke="none" 
	d="
M1.000003,465.000000 
	C1.000000,326.643341 1.000000,188.286682 1.305845,49.795547 
	C2.039522,49.173641 2.705987,48.751896 2.860823,48.189335 
	C9.316989,24.732117 24.363729,9.808576 47.591934,2.911866 
	C48.197155,2.732171 48.536606,1.657367 49.000000,1.000000 
	C187.356659,1.000000 325.713318,1.000000 464.204651,1.304791 
	C464.988342,2.059288 465.577698,2.735946 466.295349,2.924623 
	C476.896667,5.711880 486.119812,10.998139 493.984558,18.540497 
	C502.381622,26.593361 507.965302,36.385452 511.092194,47.602615 
	C511.258545,48.199318 512.342957,48.540089 513.000000,49.000000 
	C513.000000,187.356659 513.000000,325.713318 512.694519,464.204651 
	C511.961212,464.826538 511.294647,465.248016 511.139923,465.810364 
	C504.684509,489.268738 489.631073,504.186005 466.408234,511.088379 
	C465.802887,511.268280 465.463440,512.342712 465.000000,513.000000 
	C326.643341,513.000000 188.286682,513.000000 49.795227,512.694336 
	C49.173328,511.960907 48.751923,511.294434 48.189690,511.139709 
	C24.731188,504.684235 9.815927,489.628571 2.911705,466.407623 
	C2.731768,465.802429 1.657306,465.463226 1.000003,465.000000 
M105.914780,361.587341 
	C118.697449,376.617645 134.016998,388.522827 151.259827,397.954407 
	C188.834427,418.507294 229.276657,426.176849 271.712463,423.614105 
	C309.612732,421.325256 345.047852,410.802002 376.725708,389.321716 
	C403.251343,371.335022 423.097321,348.082397 432.760681,316.926300 
	C437.593079,301.345978 436.923492,285.341644 436.961456,269.397491 
	C437.065796,225.581802 437.074005,181.765518 436.969238,137.949814 
	C436.903809,110.583588 416.174225,89.951843 388.810791,89.937233 
	C301.345551,89.890549 213.880203,89.894615 126.414948,89.931274 
	C97.301186,89.943474 77.047806,110.179504 77.011162,139.228134 
	C76.963669,176.879791 76.981064,214.531586 77.012978,252.183273 
	C77.020309,260.839325 77.736237,269.528290 77.205154,278.145325 
	C75.258987,309.723206 85.370651,337.049835 105.914780,361.587341 
z"/>
<path fill="#000000" opacity="1.000000" stroke="none" 
	d="
M513.000000,48.531342 
	C512.342957,48.540089 511.258545,48.199318 511.092194,47.602615 
	C507.965302,36.385452 502.381622,26.593361 493.984558,18.540497 
	C486.119812,10.998139 476.896667,5.711880 466.295349,2.924623 
	C465.577698,2.735946 464.988342,2.059288 464.669678,1.304791 
	C480.926727,1.000000 496.853485,1.000000 513.000000,1.000000 
	C513.000000,16.686876 513.000000,32.374779 513.000000,48.531342 
z"/>
<path fill="#000000" opacity="1.000000" stroke="none" 
	d="
M48.531342,1.000000 
	C48.536606,1.657367 48.197155,2.732171 47.591934,2.911866 
	C24.363729,9.808576 9.316989,24.732117 2.860823,48.189335 
	C2.705987,48.751896 2.039522,49.173641 1.305845,49.330536 
	C1.000000,33.073269 1.000000,17.146536 1.000000,1.000000 
	C16.686876,1.000000 32.374779,1.000000 48.531342,1.000000 
z"/>
<path fill="#000000" opacity="1.000000" stroke="none" 
	d="
M1.000003,465.468658 
	C1.657306,465.463226 2.731768,465.802429 2.911705,466.407623 
	C9.815927,489.628571 24.731188,504.684235 48.189690,511.139709 
	C48.751923,511.294434 49.173328,511.960907 49.330215,512.694336 
	C33.073269,513.000000 17.146536,513.000000 1.000000,513.000000 
	C1.000000,497.313110 1.000000,481.625214 1.000003,465.468658 
z"/>
<path fill="#000000" opacity="1.000000" stroke="none" 
	d="
M465.468658,513.000000 
	C465.463440,512.342712 465.802887,511.268280 466.408234,511.088379 
	C489.631073,504.186005 504.684509,489.268738 511.139923,465.810364 
	C511.294647,465.248016 511.961212,464.826538 512.694519,464.669678 
	C513.000000,480.926727 513.000000,496.853485 513.000000,513.000000 
	C497.313110,513.000000 481.625214,513.000000 465.468658,513.000000 
z"/>
<path fill="#FFFFFF" opacity="1.000000" stroke="none" 
	d="
M105.685661,361.317383 
	C85.370651,337.049835 75.258987,309.723206 77.205154,278.145325 
	C77.736237,269.528290 77.020309,260.839325 77.012978,252.183273 
	C76.981064,214.531586 76.963669,176.879791 77.011162,139.228134 
	C77.047806,110.179504 97.301186,89.943474 126.414948,89.931274 
	C213.880203,89.894615 301.345551,89.890549 388.810791,89.937233 
	C416.174225,89.951843 436.903809,110.583588 436.969238,137.949814 
	C437.074005,181.765518 437.065796,225.581802 436.961456,269.397491 
	C436.923492,285.341644 437.593079,301.345978 432.760681,316.926300 
	C423.097321,348.082397 403.251343,371.335022 376.725708,389.321716 
	C345.047852,410.802002 309.612732,421.325256 271.712463,423.614105 
	C229.276657,426.176849 188.834427,418.507294 151.259827,397.954407 
	C134.016998,388.522827 118.697449,376.617645 105.685661,361.317383 
M238.121078,246.379044 
	C218.908752,227.177063 199.774734,207.895828 180.451111,188.806503 
	C170.770660,179.243408 156.129501,179.314331 146.759750,188.569901 
	C137.388962,197.826447 137.027710,212.663208 146.551315,222.262802 
	C177.534790,253.493561 208.647018,284.597717 239.869385,315.589722 
	C249.271866,324.922852 264.434631,325.112122 273.797546,315.839691 
	C305.292023,284.649475 336.598389,253.268372 367.841278,221.825729 
	C374.230530,215.395645 375.824493,207.284775 373.253448,198.665894 
	C367.996338,181.042786 346.468811,175.935303 333.113556,189.192871 
	C308.987946,213.142029 285.013885,237.243866 260.967834,261.273254 
	C259.707306,262.532928 258.366333,263.712097 256.747620,265.222900 
	C250.540115,258.940887 244.580643,252.909897 238.121078,246.379044 
z"/>
<path fill="#E84352" opacity="1.000000" stroke="none" 
	d="
M238.371124,246.628983 
	C244.580643,252.909897 250.540115,258.940887 256.747620,265.222900 
	C258.366333,263.712097 259.707306,262.532928 260.967834,261.273254 
	C285.013885,237.243866 308.987946,213.142029 333.113556,189.192871 
	C346.468811,175.935303 367.996338,181.042786 373.253448,198.665894 
	C375.824493,207.284775 374.230530,215.395645 367.841278,221.825729 
	C336.598389,253.268372 305.292023,284.649475 273.797546,315.839691 
	C264.434631,325.112122 249.271866,324.922852 239.869385,315.589722 
	C208.647018,284.597717 177.534790,253.493561 146.551315,222.262802 
	C137.027710,212.663208 137.388962,197.826447 146.759750,188.569901 
	C156.129501,179.314331 170.770660,179.243408 180.451111,188.806503 
	C199.774734,207.895828 218.908752,227.177063 238.371124,246.628983 
z"/>
</svg>

<svg xmlns="http://www.w3.org/2000/svg" xml:space="preserve" viewBox="0 0 512 512"><path fill="#E84352" d="M1 465c0-138.357 0-276.713.306-415.204.734-.622 1.4-1.044 1.555-1.607C9.317 24.732 24.364 9.81 47.59 2.912c.606-.18.946-1.255 1.409-1.912 138.357 0 276.713 0 415.205.305.783.754 1.373 1.43 2.09 1.62 10.602 2.787 19.825 8.073 27.69 15.615 8.397 8.053 13.98 17.845 17.107 29.063.167.596 1.251.937 1.908 1.397 0 138.357 0 276.713-.305 415.205-.734.622-1.4 1.043-1.555 1.605-6.455 23.459-21.509 38.376-44.732 45.278-.605.18-.945 1.255-1.408 1.912-138.357 0-276.713 0-415.205-.306-.622-.733-1.043-1.4-1.605-1.554-23.459-6.456-38.374-21.511-45.278-44.732-.18-.606-1.255-.945-1.912-1.408m104.915-103.413c12.782 15.03 28.102 26.936 45.345 36.367 37.574 20.553 78.017 28.223 120.452 25.66 37.9-2.289 73.336-12.812 105.014-34.292 26.525-17.987 46.371-41.24 56.035-72.396 4.832-15.58 4.162-31.584 4.2-47.529.105-43.815.113-87.631.008-131.447-.065-27.366-20.795-47.998-48.158-48.013-87.465-.046-174.93-.042-262.396-.006-29.114.012-49.367 20.249-49.404 49.297-.047 37.652-.03 75.304.002 112.955.007 8.656.723 17.345.192 25.962-1.946 31.578 8.166 58.905 28.71 83.442z"/><path d="M513 48.531c-.657.01-1.741-.332-1.908-.928-3.127-11.218-8.71-21.01-17.107-29.063-7.865-7.542-17.088-12.828-27.69-15.615-.717-.19-1.307-.866-1.625-1.62C480.927 1 496.853 1 513 1v47.531zM48.531 1c.006.657-.334 1.732-.94 1.912-23.227 6.897-38.274 21.82-44.73 45.277-.155.563-.821.985-1.555 1.142C1 33.073 1 17.147 1 1h47.531zM1 465.469c.657-.006 1.732.333 1.912.939 6.904 23.22 21.82 38.276 45.278 44.732.562.154.983.82 1.14 1.554C33.073 513 17.147 513 1 513v-47.531zM465.469 513c-.006-.657.334-1.732.94-1.912 23.222-6.902 38.276-21.82 44.73-45.278.156-.562.822-.983 1.556-1.14.305 16.257.305 32.183.305 48.33h-47.531z"/><path fill="#FFF" d="M105.686 361.317c-20.315-24.267-30.427-51.594-28.48-83.172.53-8.617-.186-17.306-.193-25.962-.032-37.651-.05-75.303-.002-112.955.037-29.048 20.29-49.285 49.404-49.297 87.465-.036 174.93-.04 262.396.006 27.363.015 48.093 20.647 48.158 48.013.105 43.816.097 87.632-.008 131.447-.038 15.945.632 31.949-4.2 47.53-9.664 31.155-29.51 54.408-56.035 72.395-31.678 21.48-67.113 32.003-105.014 34.292-42.435 2.563-82.878-5.107-120.452-25.66-17.243-9.431-32.563-21.336-45.574-36.637M238.12 246.38c-19.212-19.202-38.346-38.483-57.67-57.572-9.68-9.564-24.321-9.493-33.691-.237-9.371 9.256-9.732 24.093-.209 33.693a17190.633 17190.633 0 0 0 93.318 93.327c9.403 9.333 24.566 9.522 33.929.25 31.494-31.19 62.8-62.572 94.043-94.014 6.39-6.43 7.983-14.541 5.412-23.16-5.257-17.623-26.784-22.73-40.14-9.473-24.125 23.949-48.1 48.05-72.145 72.08-1.26 1.26-2.602 2.44-4.22 3.95a54026.956 54026.956 0 0 0-18.627-18.844z"/><path fill="#E84352" d="M238.371 246.629c6.21 6.28 12.17 12.312 18.377 18.594 1.618-1.51 2.96-2.69 4.22-3.95 24.046-24.03 48.02-48.131 72.146-72.08 13.355-13.258 34.882-8.15 40.14 9.473 2.57 8.619.977 16.73-5.413 23.16-31.243 31.442-62.549 62.823-94.043 94.014-9.363 9.272-24.526 9.083-33.929-.25a17190.633 17190.633 0 0 1-93.318-93.327c-9.523-9.6-9.162-24.437.209-33.693 9.37-9.256 24.01-9.327 33.691.237 19.324 19.089 38.458 38.37 57.92 57.822z"/></svg>
